X: 16380
T: Gusty's Frolics
R: slip jig
M: 9/8
K: Dmajor
D3 D3 F2A|D3 Fc/A/F GFE|D3 D3 F2A|GFG Ec/A/E GFE|
D3 D3 F2A|D3 Fc/A/F GFE|D3 D3 F2A|GFG Ec/A/E GFE||
FDF AF/G/A A2G|FDF AF/G/A GFE|FDF AF/G/A A2F|Gc/A/G Ec/A/E GFE|
FDF AF/G/A A2G|FDF AF/G/A GFE|FDF AF/G/A A2f|gfg ece gfe||
df/g/d df/g/d f2a|df/g/d fc/a/f gfe|df/g/d df/g/d f2a|gfg ec/a/e gfe|
df/g/d df/g/d f2a|df/g/d fc/a/f gfe|df/g/d df/g/d f2a|gfg ec/a/e gfe||
df/g/d cf/g/c d2B|AF/G/A D3 D3|BDD cDD B2f|gfg ec/a/e gfe|
df/g/d cf/g/c d2B|AF/G/A D3 D3|BDD cDD B2F|GFG Ec/A/E GFE||

